ix/logout-1_outline.svg

<svg viewBox="0 0 24 24" fill="none" xmlns="http://www.w3.org/2000/svg" height="1em" width="1em">
  <path d="M17.4409 15.3699C17.2509 15.3699 17.0609 15.2999 16.9109 15.1499C16.6209 14.8599 16.6209 14.3799 16.9109 14.0899L18.9409 12.0599L16.9109 10.0299C16.6209 9.73994 16.6209 9.25994 16.9109 8.96994C17.2009 8.67994 17.6809 8.67994 17.9709 8.96994L20.5309 11.5299C20.8209 11.8199 20.8209 12.2999 20.5309 12.5899L17.9709 15.1499C17.8209 15.2999 17.6309 15.3699 17.4409 15.3699Z" fill="#292D32"/>
  <path d="M19.9298 12.8101H9.75977C9.34977 12.8101 9.00977 12.4701 9.00977 12.0601C9.00977 11.6501 9.34977 11.3101 9.75977 11.3101H19.9298C20.3398 11.3101 20.6798 11.6501 20.6798 12.0601C20.6798 12.4701 20.3398 12.8101 19.9298 12.8101Z" fill="#292D32"/>
  <path d="M11.7598 20.75C6.60977 20.75 3.00977 17.15 3.00977 12C3.00977 6.85 6.60977 3.25 11.7598 3.25C12.1698 3.25 12.5098 3.59 12.5098 4C12.5098 4.41 12.1698 4.75 11.7598 4.75C7.48977 4.75 4.50977 7.73 4.50977 12C4.50977 16.27 7.48977 19.25 11.7598 19.25C12.1698 19.25 12.5098 19.59 12.5098 20C12.5098 20.41 12.1698 20.75 11.7598 20.75Z" fill="#292D32"/>
</svg>

<svg viewBox="0 0 24 24" fill="none" xmlns="http://www.w3.org/2000/svg" height="1em" width="1em">
  <path d="M17.44 15.37c-.19 0-.38-.07-.53-.22a.754.754 0 0 1 0-1.06l2.03-2.03-2.03-2.03a.754.754 0 0 1 0-1.06c.29-.29.77-.29 1.06 0l2.56 2.56c.29.29.29.77 0 1.06l-2.56 2.56c-.15.15-.34.22-.53.22Z" fill="#292D32"/>
  <path d="M19.93 12.81H9.76c-.41 0-.75-.34-.75-.75s.34-.75.75-.75h10.17c.41 0 .75.34.75.75s-.34.75-.75.75Z" fill="#292D32"/>
  <path d="M11.76 20.75c-5.15 0-8.75-3.6-8.75-8.75s3.6-8.75 8.75-8.75c.41 0 .75.34.75.75s-.34.75-.75.75c-4.27 0-7.25 2.98-7.25 7.25s2.98 7.25 7.25 7.25c.41 0 .75.34.75.75s-.34.75-.75.75Z" fill="#292D32"/>
</svg>
